svg/blobs-icons/no-decorations/dragonfly.svg

<svg xmlns="http://www.w3.org/2000/svg" xmlns:xlink="http://www.w3.org/1999/xlink" preserveAspectRatio="xMidYMid" width="201" height="216" viewBox="0 0 201 216"><defs><style>.cls-3{fill:#142a3b}.cls-4{fill:#000;opacity:.35}.cls-5{fill:#0cb04a}.cls-11{fill:#fbb713}.cls-17{fill:#fbfbfb;opacity:.5}.cls-21{fill:#000}</style></defs><g id="group-62svg"><path d="M107.599 215.549s-14.503.0-14.503.0C91.758 215.549 90.672 214.463 90.672 213.124V65.11C90.672 63.771 91.758 62.686 93.096 62.686h14.503C108.938 62.686 110.023 63.771 110.023 65.11V213.124C110.023 214.463 108.938 215.549 107.599 215.549z" id="path-1" class="cls-3" fill-rule="evenodd"/><path d="M104.864 63.854C105.584 65.207 106.031 66.73 106.031 68.369V201.883C106.031 207.225 101.7 211.557 96.357 211.557 94.716 211.557 93.194 211.11 91.84 210.389 93.467 213.445 96.645 215.549 100.348 215.549 105.692 215.549 110.023 211.217 110.023 205.874V72.36c0-3.702-2.104-6.88-5.15899999999999-8.506z" id="path-2" class="cls-4" fill-rule="evenodd"/><path d="M121.812 84.453s-42.929.0-42.929.0C77.272 84.453 75.967 83.149 75.967 81.537V61.249C75.967 59.637 77.272 58.332 78.883 58.332h42.929c1.61200000000001.0 2.917 1.305 2.917 2.917V81.537C124.729 83.149 123.424 84.453 121.812 84.453z" id="path-3" class="cls-5" fill-rule="evenodd"/><path d="M113.883 58.412C115.643 60.451 116.746 63.077 116.746 65.983v2.839C116.746 75.25 111.534 80.463 105.105 80.463H79.626C79.353 80.463 79.098 80.401 78.83 80.383 80.965 82.856 84.085 84.453 87.609 84.453h25.479c6.429.0 11.641-5.211 11.641-11.641V69.974c0-6.157-4.795-11.146-10.846-11.562z" id="path-4" class="cls-4" fill-rule="evenodd"/><path d="M124.522 62.686s-48.348.0-48.348.0c-1.611.0-2.917-1.306-2.917-2.918V36.578c0-1.611 1.306-2.917 2.917-2.917h48.348c1.61.0 2.916 1.306 2.916 2.917v23.19c0 1.612-1.306 2.918-2.916 2.918z" id="path-5" class="cls-5" fill-rule="evenodd"/><path d="M116.592 33.741C118.352 35.781 119.455 38.406 119.455 41.312v5.74c0 6.431-5.212 11.641-11.641 11.641H76.916C76.644 58.693 76.389 58.632 76.121 58.613 78.256 61.087 81.375 62.685 84.899 62.685h30.897C122.226 62.685 127.438 57.473 127.438 51.044V45.303C127.438 39.145 122.643 34.157 116.592 33.741z" id="path-6" class="cls-4" fill-rule="evenodd"/><path d="M112.857 35.596s-25.018.0-25.018.0C86.768 35.596 85.9 34.728 85.9 33.656v-11.6C85.9 20.984 86.768 20.117 87.839 20.117h25.018C113.928 20.117 114.796 20.984 114.796 22.056v11.6C114.796 34.728 113.928 35.596 112.857 35.596z" id="path-7" class="cls-5" fill-rule="evenodd"/><path d="M107.056 20.117S105.805 20.117 105.805 20.117C106.428 21.232 106.813 22.497 106.813 23.865c0 4.274-3.465 7.74-7.74000000000001 7.74H86.907C88.231 33.975 90.733 35.596 93.64 35.596h13.416C111.331 35.596 114.796 32.13 114.796 27.856c0-4.275-3.465-7.739-7.74000000000001-7.739z" id="path-8" class="cls-4" fill-rule="evenodd"/><path d="M200.289 112.135C199.245 117.782 176.793 118.368 150.14 113.442 123.487 108.516 102.728 99.943 103.772 94.296 104.816 88.647 127.269 88.061 153.921 92.988c26.652 4.926 47.412 13.498 46.368 19.147z" id="path-9" class="cls-11" fill-rule="evenodd"/><path d="M105.025 92.519C109.913 97.115 128.573 100.538 150.901 100.538 160.765 100.538 169.915 99.869 177.486 98.728 170.612 96.581 162.589 94.589 153.921 92.988 130.403 88.641 110.179 88.591 105.025 92.519z" id="path-10" class="cls-4" fill-rule="evenodd"/><path d="M.028 112.135C1.072 117.782 23.524 118.368 50.177 113.442 76.83 108.516 97.589 99.943 96.546 94.296 95.501 88.647 73.049 88.061 46.396 92.988 19.743 97.914-1.016 106.486.028 112.135z" id="path-11" class="cls-11" fill-rule="evenodd"/><path d="M22.831 98.728C30.403 99.869 39.552 100.538 49.417 100.538 71.744 100.538 90.404 97.115 95.292 92.519 90.138 88.591 69.914 88.641 46.397 92.988c-8.668 1.601-16.692 3.593-23.566 5.74z" id="path-12" class="cls-4" fill-rule="evenodd"/><path d="M2.25 86.147c0 5.744 21.117 10.401 47.167 10.401 26.049.0 47.166-4.657 47.166-10.401s-21.117-10.4-47.166-10.4C23.367 75.747 2.25 80.403 2.25 86.147z" id="path-13" class="cls-11" fill-rule="evenodd"/><path d="M198.067 86.147c0 5.744-21.117 10.401-47.166 10.401-26.05.0-47.167-4.657-47.167-10.401s21.117-10.4 47.167-10.4C176.95 75.747 198.067 80.403 198.067 86.147z" id="path-14" class="cls-11" fill-rule="evenodd"/><path d="M2.25 86.147c0 5.744 21.117 10.401 47.167 10.401 26.049.0 47.166-4.657 47.166-10.401s-21.117-10.4-47.166-10.4C23.367 75.747 2.25 80.403 2.25 86.147z" id="path-15" class="cls-17" fill-rule="evenodd"/><path d="M198.067 86.147c0 5.744-21.117 10.401-47.166 10.401-26.05.0-47.167-4.657-47.167-10.401s21.117-10.4 47.167-10.4C176.95 75.747 198.067 80.403 198.067 86.147z" id="path-16" class="cls-17" fill-rule="evenodd"/><path d="M119.941 14.432c0 7.963-5.089 14.418-11.367 14.418-6.279.0-11.368-6.455-11.368-14.418.0-7.961 5.089-14.417 11.368-14.417C114.852.015 119.941 6.471 119.941 14.432z" id="path-17" class="cls-3" fill-rule="evenodd"/><path d="M101.557 14.432c0 7.963-5.089 14.418-11.367 14.418-6.279.0-11.368-6.455-11.368-14.418C78.822 6.471 83.911.015 90.19.015 96.468.015 101.557 6.471 101.557 14.432z" id="path-18" class="cls-3" fill-rule="evenodd"/><path d="M113.376 1.409C114.961 3.887 115.95 7.002 115.95 10.441c0 7.963-5.09 14.418-11.368 14.418C102.859 24.859 101.243 24.336 99.78 23.465c2.084 3.259 5.227 5.385 8.794 5.385C114.852 28.85 119.941 22.396 119.941 14.432c0-5.776-2.696-10.722-6.565-13.023z" id="path-19" class="cls-21" fill-rule="evenodd"/><path d="M94.992 1.409C96.577 3.887 97.566 7.002 97.566 10.441c0 7.963-5.09 14.418-11.368 14.418C84.475 24.859 82.859 24.336 81.396 23.465c2.084 3.259 5.227 5.385 8.794 5.385C96.468 28.85 101.557 22.396 101.557 14.432c0-5.776-2.696-10.722-6.565-13.023z" id="path-20" class="cls-4" fill-rule="evenodd"/></g></svg>

<svg xmlns="http://www.w3.org/2000/svg" xmlns:xlink="http://www.w3.org/1999/xlink" preserveAspectRatio="xMidYMid" width="201" height="216" viewBox="0 0 201 216">
  <defs>
    <style>

      .cls-3 {
        fill: #142a3b;
      }

      .cls-4 {
        fill: #000000;
        opacity: 0.35;
      }

      .cls-5 {
        fill: #0cb04a;
      }

      .cls-11 {
        fill: #fbb713;
      }

      .cls-17 {
        fill: #fbfbfb;
        opacity: 0.5;
      }

      .cls-21 {
        fill: #000000;
      }
    </style>
  </defs>
  <g id="group-62svg">
    <path d="M107.599,215.549 C107.599,215.549 93.096,215.549 93.096,215.549 C91.758,215.549 90.672,214.463 90.672,213.124 C90.672,213.124 90.672,65.110 90.672,65.110 C90.672,63.771 91.758,62.686 93.096,62.686 C93.096,62.686 107.599,62.686 107.599,62.686 C108.938,62.686 110.023,63.771 110.023,65.110 C110.023,65.110 110.023,213.124 110.023,213.124 C110.023,214.463 108.938,215.549 107.599,215.549 Z" id="path-1" class="cls-3" fill-rule="evenodd"/>
    <path d="M104.864,63.854 C105.584,65.207 106.031,66.730 106.031,68.369 C106.031,68.369 106.031,201.883 106.031,201.883 C106.031,207.225 101.700,211.557 96.357,211.557 C94.716,211.557 93.194,211.110 91.840,210.389 C93.467,213.445 96.645,215.549 100.348,215.549 C105.692,215.549 110.023,211.217 110.023,205.874 C110.023,205.874 110.023,72.360 110.023,72.360 C110.023,68.658 107.919,65.480 104.864,63.854 Z" id="path-2" class="cls-4" fill-rule="evenodd"/>
    <path d="M121.812,84.453 C121.812,84.453 78.883,84.453 78.883,84.453 C77.272,84.453 75.967,83.149 75.967,81.537 C75.967,81.537 75.967,61.249 75.967,61.249 C75.967,59.637 77.272,58.332 78.883,58.332 C78.883,58.332 121.812,58.332 121.812,58.332 C123.424,58.332 124.729,59.637 124.729,61.249 C124.729,61.249 124.729,81.537 124.729,81.537 C124.729,83.149 123.424,84.453 121.812,84.453 Z" id="path-3" class="cls-5" fill-rule="evenodd"/>
    <path d="M113.883,58.412 C115.643,60.451 116.746,63.077 116.746,65.983 C116.746,65.983 116.746,68.822 116.746,68.822 C116.746,75.250 111.534,80.463 105.105,80.463 C105.105,80.463 79.626,80.463 79.626,80.463 C79.353,80.463 79.098,80.401 78.830,80.383 C80.965,82.856 84.085,84.453 87.609,84.453 C87.609,84.453 113.088,84.453 113.088,84.453 C119.517,84.453 124.729,79.242 124.729,72.812 C124.729,72.812 124.729,69.974 124.729,69.974 C124.729,63.817 119.934,58.828 113.883,58.412 Z" id="path-4" class="cls-4" fill-rule="evenodd"/>
    <path d="M124.522,62.686 C124.522,62.686 76.174,62.686 76.174,62.686 C74.563,62.686 73.257,61.380 73.257,59.768 C73.257,59.768 73.257,36.578 73.257,36.578 C73.257,34.967 74.563,33.661 76.174,33.661 C76.174,33.661 124.522,33.661 124.522,33.661 C126.132,33.661 127.438,34.967 127.438,36.578 C127.438,36.578 127.438,59.768 127.438,59.768 C127.438,61.380 126.132,62.686 124.522,62.686 Z" id="path-5" class="cls-5" fill-rule="evenodd"/>
    <path d="M116.592,33.741 C118.352,35.781 119.455,38.406 119.455,41.312 C119.455,41.312 119.455,47.052 119.455,47.052 C119.455,53.483 114.243,58.693 107.814,58.693 C107.814,58.693 76.916,58.693 76.916,58.693 C76.644,58.693 76.389,58.632 76.121,58.613 C78.256,61.087 81.375,62.685 84.899,62.685 C84.899,62.685 115.796,62.685 115.796,62.685 C122.226,62.685 127.438,57.473 127.438,51.044 C127.438,51.044 127.438,45.303 127.438,45.303 C127.438,39.145 122.643,34.157 116.592,33.741 Z" id="path-6" class="cls-4" fill-rule="evenodd"/>
    <path d="M112.857,35.596 C112.857,35.596 87.839,35.596 87.839,35.596 C86.768,35.596 85.900,34.728 85.900,33.656 C85.900,33.656 85.900,22.056 85.900,22.056 C85.900,20.984 86.768,20.117 87.839,20.117 C87.839,20.117 112.857,20.117 112.857,20.117 C113.928,20.117 114.796,20.984 114.796,22.056 C114.796,22.056 114.796,33.656 114.796,33.656 C114.796,34.728 113.928,35.596 112.857,35.596 Z" id="path-7" class="cls-5" fill-rule="evenodd"/>
    <path d="M107.056,20.117 C107.056,20.117 105.805,20.117 105.805,20.117 C106.428,21.232 106.813,22.497 106.813,23.865 C106.813,28.139 103.348,31.605 99.073,31.605 C99.073,31.605 86.907,31.605 86.907,31.605 C88.231,33.975 90.733,35.596 93.640,35.596 C93.640,35.596 107.056,35.596 107.056,35.596 C111.331,35.596 114.796,32.130 114.796,27.856 C114.796,23.581 111.331,20.117 107.056,20.117 Z" id="path-8" class="cls-4" fill-rule="evenodd"/>
    <path d="M200.289,112.135 C199.245,117.782 176.793,118.368 150.140,113.442 C123.487,108.516 102.728,99.943 103.772,94.296 C104.816,88.647 127.269,88.061 153.921,92.988 C180.573,97.914 201.333,106.486 200.289,112.135 Z" id="path-9" class="cls-11" fill-rule="evenodd"/>
    <path d="M105.025,92.519 C109.913,97.115 128.573,100.538 150.901,100.538 C160.765,100.538 169.915,99.869 177.486,98.728 C170.612,96.581 162.589,94.589 153.921,92.988 C130.403,88.641 110.179,88.591 105.025,92.519 Z" id="path-10" class="cls-4" fill-rule="evenodd"/>
    <path d="M0.028,112.135 C1.072,117.782 23.524,118.368 50.177,113.442 C76.830,108.516 97.589,99.943 96.546,94.296 C95.501,88.647 73.049,88.061 46.396,92.988 C19.743,97.914 -1.016,106.486 0.028,112.135 Z" id="path-11" class="cls-11" fill-rule="evenodd"/>
    <path d="M22.831,98.728 C30.403,99.869 39.552,100.538 49.417,100.538 C71.744,100.538 90.404,97.115 95.292,92.519 C90.138,88.591 69.914,88.641 46.397,92.988 C37.729,94.589 29.705,96.581 22.831,98.728 Z" id="path-12" class="cls-4" fill-rule="evenodd"/>
    <path d="M2.250,86.147 C2.250,91.891 23.367,96.548 49.417,96.548 C75.466,96.548 96.583,91.891 96.583,86.147 C96.583,80.403 75.466,75.747 49.417,75.747 C23.367,75.747 2.250,80.403 2.250,86.147 Z" id="path-13" class="cls-11" fill-rule="evenodd"/>
    <path d="M198.067,86.147 C198.067,91.891 176.950,96.548 150.901,96.548 C124.851,96.548 103.734,91.891 103.734,86.147 C103.734,80.403 124.851,75.747 150.901,75.747 C176.950,75.747 198.067,80.403 198.067,86.147 Z" id="path-14" class="cls-11" fill-rule="evenodd"/>
    <path d="M2.250,86.147 C2.250,91.891 23.367,96.548 49.417,96.548 C75.466,96.548 96.583,91.891 96.583,86.147 C96.583,80.403 75.466,75.747 49.417,75.747 C23.367,75.747 2.250,80.403 2.250,86.147 Z" id="path-15" class="cls-17" fill-rule="evenodd"/>
    <path d="M198.067,86.147 C198.067,91.891 176.950,96.548 150.901,96.548 C124.851,96.548 103.734,91.891 103.734,86.147 C103.734,80.403 124.851,75.747 150.901,75.747 C176.950,75.747 198.067,80.403 198.067,86.147 Z" id="path-16" class="cls-17" fill-rule="evenodd"/>
    <path d="M119.941,14.432 C119.941,22.395 114.852,28.850 108.574,28.850 C102.295,28.850 97.206,22.395 97.206,14.432 C97.206,6.471 102.295,0.015 108.574,0.015 C114.852,0.015 119.941,6.471 119.941,14.432 Z" id="path-17" class="cls-3" fill-rule="evenodd"/>
    <path d="M101.557,14.432 C101.557,22.395 96.468,28.850 90.190,28.850 C83.911,28.850 78.822,22.395 78.822,14.432 C78.822,6.471 83.911,0.015 90.190,0.015 C96.468,0.015 101.557,6.471 101.557,14.432 Z" id="path-18" class="cls-3" fill-rule="evenodd"/>
    <path d="M113.376,1.409 C114.961,3.887 115.950,7.002 115.950,10.441 C115.950,18.404 110.860,24.859 104.582,24.859 C102.859,24.859 101.243,24.336 99.780,23.465 C101.864,26.724 105.007,28.850 108.574,28.850 C114.852,28.850 119.941,22.396 119.941,14.432 C119.941,8.656 117.245,3.710 113.376,1.409 Z" id="path-19" class="cls-21" fill-rule="evenodd"/>
    <path d="M94.992,1.409 C96.577,3.887 97.566,7.002 97.566,10.441 C97.566,18.404 92.476,24.859 86.198,24.859 C84.475,24.859 82.859,24.336 81.396,23.465 C83.480,26.724 86.623,28.850 90.190,28.850 C96.468,28.850 101.557,22.396 101.557,14.432 C101.557,8.656 98.861,3.710 94.992,1.409 Z" id="path-20" class="cls-4" fill-rule="evenodd"/>
  </g>
</svg>
